packages/katcn/src/icons/svg/sticker.svg

<svg xmlns="http://www.w3.org/2000/svg" fill="none" viewBox="0 0 24 24"><path fill="#000" d="M21 13.5c-.6 0-1 .4-1 1V17c0 1.7-1.4 3.1-3.1 3.1H7.1C5.4 20 4 18.6 4 16.9V7.1C4 5.4 5.4 4 7.1 4h4c.2 0 .5 0 .7.1v3c0 2.8 2.3 5.1 5.1 5.1H21c.4 0 .8-.2.9-.6.2-.4.1-.8-.2-1.1l-7-7Q13.2 2 11.1 2h-4C4.3 2 2 4.3 2 7.1v9.8C2 19.7 4.3 22 7.1 22h9.8c2.8 0 5.1-2.3 5.1-5.1v-2.5c0-.5-.4-.9-1-.9m-7.2-8.1 4.8 4.8h-1.7c-1.7 0-3.1-1.4-3.1-3.1z"/></svg>

<svg width="24" height="24" viewBox="0 0 24 24" fill="none" xmlns="http://www.w3.org/2000/svg">
<path d="M21 13.5C20.4 13.5 20 13.9 20 14.5V17C20 18.7 18.6 20.1 16.9 20.1H7.1C5.4 20 4 18.6 4 16.9V7.1C4 5.4 5.4 4 7.1 4H11.1C11.3 4 11.6 4 11.8 4.1V7.1C11.8 9.9 14.1 12.2 16.9 12.2H21C21.4 12.2 21.8 12 21.9 11.6C22.1 11.2 22 10.8 21.7 10.5L14.7 3.5C13.7 2.5 12.5 2 11.1 2H7.1C4.3 2 2 4.3 2 7.1V16.9C2 19.7 4.3 22 7.1 22H16.9C19.7 22 22 19.7 22 16.9V14.4C22 13.9 21.6 13.5 21 13.5ZM13.8 5.4L18.6 10.2H16.9C15.2 10.2 13.8 8.8 13.8 7.1V5.4Z" fill="black"/>
</svg>
